X:20
T:Bourree a six de la Chatre
Z:Jack Campin, 2014
F:http://www.campin.me.uk/Music/YoupNannetteD.abc
S:p27, p1000216.jpg
M:3/8
L:1/16
Q:1/4=120
K:G
D2|GFGABc|d4  e2|dcB2A2|B2G2\
D2|GFGABc|d4  e2|dcB2A2|G4:|
Bd|g2f2Ac|e2d2GA|BABcBA|B2G2\
Bd|g2f2Ac|e2d2GA|BABcBA|G4:|

